_includes/icons/color-high-priority.svg

<svg fill="#666" height="50" viewBox="0 0 48 48" width="50" xmlns="http://www.w3.org/2000/svg"><path d="m21.199219 44.800781-18-18c-1.597656-1.601562-1.597656-4.101562 0-5.699218l18-18c1.601562-1.601563 4.101562-1.601563 5.699219 0l18 18c1.601562 1.597656 1.601562 4.097656 0 5.699218l-18 18c-1.597657 1.597657-4.199219 1.597657-5.699219 0z" fill="#f44336"/><path d="m21.601563 32.699219c0-.300781.097656-.597656.199218-.898438.097657-.300781.300782-.5.5-.699218.199219-.203125.5-.402344.800782-.5.296875-.101563.597656-.203125 1-.203125.398437 0 .699218.101562 1 .203125.296875.097656.597656.296875.796875.5.203125.199218.402343.398437.5.699218.101562.300782.203125.597657.203125.898438s-.101563.601562-.203125.902344c-.097657.296875-.296875.5-.5.699218-.199219.199219-.5.398438-.796875.5-.300782.097657-.601563.199219-1 .199219-.402344 0-.703125-.101562-1-.199219-.300782-.101562-.5-.300781-.800782-.5-.199218-.199218-.402343-.402343-.5-.699218-.101562-.300782-.199218-.5-.199218-.902344zm4.199218-4.597656h-3.601562l-.5-15.101563h4.601562z" fill="#fff"/></svg>

<svg xmlns="http://www.w3.org/2000/svg" viewBox="0 0 48 48" width="50" height="50" fill="#666"><path d="M 21.199219 44.800781 L 3.199219 26.800781 C 1.601563 25.199219 1.601563 22.699219 3.199219 21.101563 L 21.199219 3.101563 C 22.800781 1.5 25.300781 1.5 26.898438 3.101563 L 44.898438 21.101563 C 46.5 22.699219 46.5 25.199219 44.898438 26.800781 L 26.898438 44.800781 C 25.300781 46.398438 22.699219 46.398438 21.199219 44.800781 Z" fill="#f44336"/><path d="M 21.601563 32.699219 C 21.601563 32.398438 21.699219 32.101563 21.800781 31.800781 C 21.898438 31.5 22.101563 31.300781 22.300781 31.101563 C 22.5 30.898438 22.800781 30.699219 23.101563 30.601563 C 23.398438 30.5 23.699219 30.398438 24.101563 30.398438 C 24.5 30.398438 24.800781 30.5 25.101563 30.601563 C 25.398438 30.699219 25.699219 30.898438 25.898438 31.101563 C 26.101563 31.300781 26.300781 31.5 26.398438 31.800781 C 26.5 32.101563 26.601563 32.398438 26.601563 32.699219 C 26.601563 33 26.5 33.300781 26.398438 33.601563 C 26.300781 33.898438 26.101563 34.101563 25.898438 34.300781 C 25.699219 34.5 25.398438 34.699219 25.101563 34.800781 C 24.800781 34.898438 24.5 35 24.101563 35 C 23.699219 35 23.398438 34.898438 23.101563 34.800781 C 22.800781 34.699219 22.601563 34.5 22.300781 34.300781 C 22.101563 34.101563 21.898438 33.898438 21.800781 33.601563 C 21.699219 33.300781 21.601563 33.101563 21.601563 32.699219 Z M 25.800781 28.101563 L 22.199219 28.101563 L 21.699219 13 L 26.300781 13 Z" fill="#fff"/></svg>
